ui/StatusQ/src/assets/img/icons/emojiReactions/laughing.svg

<svg fill="none" height="32" viewBox="0 0 32 32" width="32" xmlns="http://www.w3.org/2000/svg" xmlns:xlink="http://www.w3.org/1999/xlink"><radialGradient id="a" cx="0" cy="0" gradientTransform="matrix(-15.5002138 22.49991078 -29.20940061 -20.12238887 21.5 6.5)" gradientUnits="userSpaceOnUse" r="1"><stop offset="0" stop-color="#ffd764"/><stop offset="1" stop-color="#ffb746"/></radialGradient><circle cx="16" cy="16" fill="#ffd764" r="16"/><circle cx="16" cy="16" fill="url(#a)" r="16"/><path d="m25 19.5c0 4.4183-5 7.5-9 7.5s-9-3.0817-9-7.5c0-2 4.5-3 9-3s9 1 9 3z" fill="#772622"/><path d="m21.3581 18.7491c-.8803-.2963-2.6664-.7491-5.3581-.7491-2.6918 0-4.4778.4528-5.3582.7491-.3617.1217-.5035.5276-.3328.8689.117.2341.3551.382.6169.382h10.1482c.2617 0 .4998-.1479.6169-.382.1706-.3413.0288-.7472-.3329-.8689z" fill="#fff"/><path d="m18.9444 23.7709c.4395.248.4115.8557-.0448 1.0714-.8936.4225-1.8871.6577-2.8996.6577-1.0126 0-2.006-.2352-2.8997-.6577-.4563-.2157-.4842-.8234-.0448-1.0714.8699-.4908 1.8745-.7709 2.9445-.7709 1.0699 0 2.0745.2801 2.9444.7709z" fill="#e45852"/><g clip-rule="evenodd" fill="#424242" fill-rule="evenodd"><path d="m8.20292 9.31486c.30937-.37124.86112-.4214 1.23236-.11203l3.00002 2.49997c.283.2359.388.6237.2626.9701-.1255.3464-.4544.5771-.8228.5771-1.3873 0-3.4081.4492-4.53611 1.1545-.40975.2562-.9496.1317-1.20579-.278-.25619-.4098-.13171-.9497.27804-1.2058.77079-.482 1.78152-.8469 2.801-1.0861.20523-.0482.27237-.3127.11042-.4476l-1.0077-.8398c-.37125-.3094-.42141-.8611-.11204-1.23234z"/><path d="m23.7971 9.31486c-.3094-.37124-.8611-.4214-1.2324-.11203l-3 2.49997c-.283.2359-.388.6237-.2626.9701.1255.3464.4544.5771.8228.5771 1.3873 0 3.4081.4492 4.5361 1.1545.4098.2562.9496.1317 1.2058-.278.2562-.4098.1317-.9497-.278-1.2058-.7708-.482-1.7816-.8469-2.801-1.0861-.2053-.0482-.2724-.3127-.1105-.4476l1.0077-.8398c.3713-.3094.4214-.8611.1121-1.23234z"/></g></svg>

<svg width="32" height="32" viewBox="0 0 32 32" fill="none" xmlns="http://www.w3.org/2000/svg">
<circle cx="16" cy="16" r="16" fill="#FFD764"/>
<circle cx="16" cy="16" r="16" fill="url(#paint0_radial)"/>
<path d="M25 19.5C25 23.9183 20 27 16 27C12 27 7 23.9183 7 19.5C7 17.5 11.5 16.5 16 16.5C20.5 16.5 25 17.5 25 19.5Z" fill="#772622"/>
<path d="M21.3581 18.7491C20.4778 18.4528 18.6917 18 16 18C13.3082 18 11.5222 18.4528 10.6418 18.7491C10.2801 18.8708 10.1383 19.2767 10.309 19.618C10.426 19.8521 10.6641 20 10.9259 20H21.0741C21.3358 20 21.5739 19.8521 21.691 19.618C21.8616 19.2767 21.7198 18.8708 21.3581 18.7491Z" fill="white"/>
<path d="M18.9444 23.7709C19.3839 24.0189 19.3559 24.6266 18.8996 24.8423C18.006 25.2648 17.0125 25.5 16 25.5C14.9874 25.5 13.994 25.2648 13.1003 24.8423C12.644 24.6266 12.6161 24.0189 13.0555 23.7709C13.9254 23.2801 14.93 23 16 23C17.0699 23 18.0745 23.2801 18.9444 23.7709Z" fill="#E45852"/>
<path fill-rule="evenodd" clip-rule="evenodd" d="M8.20292 9.31486C8.51229 8.94362 9.06404 8.89346 9.43528 9.20283L12.4353 11.7028C12.7183 11.9387 12.8233 12.3265 12.6979 12.6729C12.5724 13.0193 12.2435 13.25 11.8751 13.25C10.4878 13.25 8.467 13.6992 7.33899 14.4045C6.92924 14.6607 6.38939 14.5362 6.1332 14.1265C5.87701 13.7167 6.00149 13.1768 6.41124 12.9207C7.18203 12.4387 8.19276 12.0738 9.21224 11.8346C9.41747 11.7864 9.48461 11.5219 9.32266 11.387L8.31496 10.5472C7.94371 10.2378 7.89355 9.6861 8.20292 9.31486Z" fill="#424242"/>
<path fill-rule="evenodd" clip-rule="evenodd" d="M23.7971 9.31486C23.4877 8.94362 22.936 8.89346 22.5647 9.20283L19.5647 11.7028C19.2817 11.9387 19.1767 12.3265 19.3021 12.6729C19.4276 13.0193 19.7565 13.25 20.1249 13.25C21.5122 13.25 23.533 13.6992 24.661 14.4045C25.0708 14.6607 25.6106 14.5362 25.8668 14.1265C26.123 13.7167 25.9985 13.1768 25.5888 12.9207C24.818 12.4387 23.8072 12.0738 22.7878 11.8346C22.5825 11.7864 22.5154 11.5219 22.6773 11.387L23.685 10.5472C24.0563 10.2378 24.1064 9.6861 23.7971 9.31486Z" fill="#424242"/>
<defs>
<radialGradient id="paint0_radial" cx="0" cy="0" r="1" gradientUnits="userSpaceOnUse" gradientTransform="translate(21.5 6.5) rotate(124.563) scale(27.3222 35.4697)">
<stop stop-color="#FFD764"/>
<stop offset="1" stop-color="#FFB746"/>
</radialGradient>
</defs>
</svg>
